X: 11173
T: COLONEL BALFOUR'S QUICK STEP.
C: George Muschet.
Q: "Allegro."
%R: quick-step, jig
B: W. Hamilton "Universal Tune-Book" Vol. 1 Glasgow 1844 p.117 #3
S: http://imslp.org/wiki/Hamilton's_Universal_Tune-Book_(Various)
Z: 2016 John Chambers <jc:trillian.mit.edu>
M: 6/8
L: 1/8
K: D
% - - - - - - - - - - - - - - - - - - - - - - - - -
d/e/ |\
aff Tf2a | gee Te2g | f>gf fed | [eA][eA][eA] T[e2A2] d/f/ |\
aff Tf2a | gee Te2g | f>gf e>de | ddd d2 :|
|: f |\
eAA Age | fdd d2e | f>gf fed | [eA][eA][eA] [e2A2] d/f/ |\
aff Tf2a | gee e2g | f>gf e>de | ddd d2 :|
% - - - - - - - - - - - - - - - - - - - - - - - - -

%%sep 1 1 500
%%sep 1 1 500

